!!!!SEGMENT: pl-wnifc--13846--001-004_anonim--piesni-polskie-i-ruskie-ludu-galicyjskiego-4-pomagaj-bog-zelman.krn
!!!kernsource:
!!!cenid: 18xx:3226
!!!COM: Anonim
!!!COM-rismID: pe30004985
!!!CDT:
!!!CNT:
!!!GTL: Pieśni polskie i ruskie ludu galicyjskiego
!!!OTL: 4. Pomagaj Bóg Zelman
!!!OMV: 004
!!!PDT: 1833
!!!AGN:
!!!YEC: Copyright 2022 Narodowy Instytut Fryderyka Chopina (https://polishscores.org)
!!!YEM: License CC-BY-4.0 (https://creativecommons.org/licenses/by/4.0)
!!!SMS-siglum: PL-Wnifc
!!!SMS-shelfmark: 13846
!!!SMS-shelfwork: 001-004 G
!!!SMS-variant:
!!!SMS-altvar:
!!!NIFC-rismSourceID: 1001036701
!!!NIFC-rismChildID: 1001036721
!!!NIFC-islandoraID: nifc:210326
!!!URL-pdf-islandora: https://repozytorium.nifc.pl/islandora/object/nifc%3A210326/datastream/PDF/view
!!!URL-scan:
!!!IIIF:
!!!ONB-nifc:
!!!OMD: Allegretto piu tosto  Moderato.
!!!AIN: 1 piano 1 vox
!!!key: D
**kern	**kern	**kern	**text
*part2	*part2	*part1	*
*staff3	*staff2	*staff1	*
*I"Fortepian	*I"Fortepian	*I"Głos	*
*Ipiano	*Ipiano	*Ivox	*
*ICklav	*ICklav	*ICvox	*
*IGacmp	*IGacmp	*IGsolo	*
*clefF4	*clefG2	*clefG2	*
*k[f#c#]	*k[f#c#]	*k[f#c#]	*
*D:	*D:	*D:	*
*M2/4	*M2/4	*M2/4	*
=1-	=1-	=1-	=1-
!	!	!LO:TX:a:t=B.a.I.	!
4AA\ 4A\	8a\L 8gg\	8gg\	Po-
.	8a\ 8ff#\	8ff#\	-ma-
4AA\ 4A\	8a\ 8ee\	8ee\	-gaj
.	8a\J 8gg\	8gg\	Bóg
=2	=2	=2	=2
4D\^ 4A\	8a\L 8ff#\	(8ff#\L	Zel-
.	8a\J 8ee\	8ee\J)	.
!	!LO:TX:a:t=ten.	!	!
4D\ 4A\	4a\ 4dd\	4dd\	-man
!!LO:PB:g=original
=3	=3	=3	=3
4AA/ 4A/	8a\L 8gg\	8gg\	po-
.	8a\ 8ff#\	8ff#\	-ma-
4AA/ 4A/	8a\ 8ee\	8ee\	-gaj
.	8a\J 8gg\	8gg\	Bóg
=4	=4	=4	=4
4D\^ 4A\	8a\L 8ff#\	8ff#\	je-
.	8a\J 8ee\	8ee\	-go
4D\ 4A\	4a\ 4dd\	4dd\	brat
=5	=5	=5	=5
4AAA/ 4AA/	8a\'L 8ee\	8ee\	po-
.	8a\'J 8ee\	8ee\	-ma-
4DD/ 4AA/	8a^<\L 8ff#\	8ff#\	-gaj
.	8a\J 8dd\	8dd\	Bóg
!!LO:LB:g=original
=6	=6	=6	=6
4AAA/ 4AA/	8a\'L 8ee\	8ee\	Zel-
.	8a\'J 8ee\	8ee\	-ma-
4DD/ 4AA/	8a^<\L 8ff#\	8ff#\	-no-
.	8a\J 8dd\	8dd\	-wa
=7	=7	=7	=7
4DD/ 4AA/	4dd\ 4ff#\	4ff#\	wszys-
4AAA/ 4AA/	4ee\ 4gg\	4gg\	-tka
=8	=8	=8	=8
8DD/L 8AA/	8dd\L 8ff#\	8ff#\	ro-
8AAA/J 8AA/	8cc#\J 8ee\	8ee\	-dzi-
4DD/ 4AA/	4dd\	4dd\	-na
==	==	==	==
*-	*-	*-	*-
!!!system-decoration: s1,{(s2,s3)}
!!!RDF**kern: < = below
!!!RDF**kern: > = above
!!!ENC: Marta Chmielewska
!!!END: 2021-11-10
